!!!OTL: WENN ICH AN DEN LETZTEN ABEND GEDENNCK
!!!ARE: Europa, Mitteleuropa, Deutschland, Hessen, Odenwald; Bergstrasse
!!!SCT: E0555
!!!YEM: Copyright 1995, estate of Helmut Schaffrath.
**kern
*ICvox
*Ivox
*M4/4
*k[f#c#]
*D:
{8D
8F#
=1
4A
4A
4A
8B
8A
=2
8A
8G
8G
8F#
4G}
{8A
8G
=3
4F#
4F#
4A
8G
8F#
=4
2E
4r}
{8D
8D
=5
4B
8B
8B
4B
8d
8B
=6
8B
8A
8A
8A
4d}
{8d
8d
=7
4e
4e
4c#
8B
8c#
=8
2d
4r}
{8D
8F#
=9
8A
8A
8A
8A
4A}
{8d
8c#
=10
8B
8B
8B
8B
4B}
{8e
8d
=11
4c#
4A
4A
8B
8c#
=12
2d
4r}
{8D
8F#
=13
8A
8A
8A
8A
4A}
{8d
8c#
=14
8B
8B
8B
8B
4B}
{8e
8d
=15
4c#
4A
4A
8B
8c#
=16
2d
4r}
==
!!!AGN: Liebes - Lied, Abschied
!!!ONB: ESAC (Essen Associative Code) Database: ERK1
!!!AMT: simple quadruple
!!!AIN: vox
!!!EED: Helmut Schaffrath
!!!EEV: 1.0
*-
